public/icons/venus.svg

<svg width="74" height="75" viewBox="0 0 74 75" fill="none" xmlns="http://www.w3.org/2000/svg">
<path d="M73.9845 35.4539C73.9845 36.5164 73.9845 37.5711 73.9845 38.6335C73.8914 38.6723 73.9225 38.7654 73.9147 38.8352C73.8604 40.3086 73.6898 41.7666 73.4417 43.2168C72.4646 48.9557 70.2624 54.1749 66.8194 58.859C62.5003 64.722 56.9249 68.9718 50.1243 71.5853C46.8597 72.8417 43.471 73.5862 39.9816 73.8653C39.5008 73.9041 39.0123 73.8421 38.547 73.9972C37.4846 73.9972 36.43 73.9972 35.3677 73.9972C35.2979 73.8731 35.1816 73.9351 35.0885 73.9351C33.0104 73.8498 30.9555 73.5629 28.9238 73.1053C23.8835 71.9731 19.2774 69.8792 15.1133 66.8159C11.0422 63.8224 7.70785 60.1464 5.14115 55.7957C2.24101 50.879 0.581575 45.5667 0.124067 39.8744C0.0930496 39.4633 0.155085 39.0368 0.00775146 38.6335C0.00775146 37.5478 0.00775146 36.4621 0.00775146 35.3763C0.162839 34.911 0.100804 34.4225 0.139576 33.9416C0.356698 31.2428 0.860733 28.6061 1.67494 26.0313C3.74536 19.4472 7.36665 13.8635 12.5311 9.28014C15.7491 6.41848 19.3627 4.2005 23.3639 2.61844C26.8379 1.23801 30.4359 0.415965 34.1658 0.129023C34.5923 0.0980024 35.0265 0.167799 35.4452 0.0126953C36.4766 0.0126953 37.5157 0.0126953 38.547 0.0126953C38.5858 0.105758 38.6788 0.0747368 38.7486 0.082492C40.8966 0.152289 43.0135 0.446986 45.0994 0.920052C50.1165 2.04455 54.7071 4.12294 58.8402 7.17073C64.7103 11.4981 68.9519 17.0741 71.5651 23.8754C72.8291 27.1636 73.5735 30.5759 73.8604 34.089C73.8992 34.5465 73.8372 35.0119 73.9845 35.4539ZM27.5823 57.0598C27.5048 57.2615 27.6056 57.339 27.6599 57.4398C28.7765 59.3709 29.9086 61.2942 31.002 63.233C31.5758 64.2411 32.2504 65.1407 33.1732 65.862C36.5541 68.5065 41.6875 67.5759 43.8975 63.8922C44.9521 62.1395 45.9602 60.3558 46.9838 58.5876C49.1472 54.8419 51.2952 51.0884 53.4587 47.3426C55.5989 43.6434 57.7391 39.9441 59.8793 36.2372C61.6861 33.1041 63.4851 29.9632 65.3073 26.8379C66.9668 23.9917 66.6721 20.4554 64.3458 17.9737C62.919 16.4537 61.1277 15.6937 59.0418 15.6782C56.5992 15.6549 54.1566 15.6704 51.7139 15.6782C51.5976 15.6782 51.458 15.6239 51.3417 15.748C51.4193 15.8798 51.5511 15.8876 51.6674 15.9186C55.1026 16.9345 56.9559 20.9439 55.4748 24.2011C54.9553 25.3411 54.2651 26.3881 53.6448 27.4661C51.7372 30.7853 49.8219 34.0967 47.9065 37.4082C46.3479 40.107 44.7893 42.7981 43.2384 45.4969C42.3079 47.1177 41.4161 48.7618 40.4623 50.3671C39.5008 51.9802 38.5625 53.6165 37.632 55.2529C37.0271 56.3153 36.3292 57.2847 35.2591 57.9207C33.1267 59.1925 30.9787 59.2158 28.823 57.9905C28.3733 57.7501 28.0088 57.3856 27.5823 57.0598ZM32.6227 15.7402C32.708 15.8565 32.801 15.8798 32.8941 15.9263C34.9412 16.9578 35.6856 19.2223 34.4294 21.4015C34.0805 22.0064 33.6928 22.6036 33.3361 23.2085C31.6921 26.0158 30.0715 28.8387 28.443 31.6616C26.8844 34.3604 25.3335 37.0592 23.7749 39.7503C22.8832 41.3013 21.0376 41.976 19.3394 41.3944C18.8509 41.2238 18.4399 40.9291 18.0212 40.6266C17.9204 40.8282 18.0522 40.9368 18.1142 41.0454C19.3317 43.1703 20.5413 45.2952 21.782 47.4046C23.6198 50.53 28.1251 50.5998 30.0637 47.5287C30.7306 46.474 31.3277 45.3728 31.9558 44.2948C34.0882 40.6033 36.2207 36.9119 38.3531 33.2204C40.3383 29.7849 42.3389 26.3648 44.3085 22.9138C46.1618 19.6643 43.82 15.6627 40.0746 15.6627C37.7328 15.6627 35.3987 15.6627 33.0569 15.6627C32.9328 15.6782 32.7855 15.6316 32.6227 15.7402ZM14.3999 15.6782C10.8561 15.6782 8.00251 18.5243 7.99476 22.0607C7.99476 25.6126 10.8639 28.4897 14.4076 28.4742C17.9436 28.4665 20.7895 25.6048 20.7895 22.0607C20.7895 18.5243 17.9436 15.6782 14.3999 15.6782Z" fill="#121620"/>
<path d="M27.5823 57.0654C28.0088 57.3912 28.3733 57.7479 28.823 58.0038C30.9865 59.2214 33.1345 59.2059 35.2592 57.934C36.3293 57.2903 37.0272 56.3287 37.632 55.2662C38.5625 53.6299 39.5008 52.0013 40.4624 50.3805C41.4162 48.7751 42.3079 47.131 43.2384 45.5102C44.7893 42.8114 46.3557 40.1203 47.9066 37.4215C49.8219 34.1101 51.7372 30.7986 53.6448 27.4794C54.2652 26.3937 54.9553 25.3467 55.4748 24.2145C56.9559 20.9573 55.1026 16.9478 51.6674 15.9319C51.5511 15.9009 51.4193 15.8931 51.3417 15.7613C51.4658 15.6372 51.5976 15.6915 51.714 15.6915C54.1566 15.6915 56.5992 15.676 59.0418 15.6915C61.1278 15.707 62.919 16.467 64.3458 17.987C66.6644 20.4687 66.9668 24.0051 65.3074 26.8512C63.4851 29.9766 61.6861 33.1174 59.8793 36.2505C57.7391 39.9497 55.5989 43.649 53.4587 47.3559C51.2952 51.1017 49.1473 54.8552 46.9838 58.601C45.9602 60.3769 44.9444 62.1528 43.8975 63.9055C41.6876 67.5892 36.5542 68.5198 33.1732 65.8753C32.2505 65.1541 31.5758 64.2545 31.002 63.2463C29.9087 61.3075 28.7765 59.3842 27.6599 57.4532C27.6056 57.3524 27.5048 57.2671 27.5823 57.0654Z" fill="#3487FE"/>
<path d="M32.6227 15.7453C32.7855 15.6367 32.9328 15.6833 33.0647 15.6833C35.4065 15.6833 37.7405 15.6833 40.0824 15.6833C43.8277 15.6833 46.1696 19.6849 44.3163 22.9344C42.3466 26.3777 40.346 29.8054 38.3609 33.241C36.2284 36.9325 34.096 40.6239 31.9635 44.3154C31.3354 45.3934 30.7383 46.4946 30.0715 47.5493C28.1329 50.6204 23.6276 50.5506 21.7898 47.4252C20.5491 45.3158 19.3394 43.1909 18.122 41.066C18.0599 40.9574 17.9281 40.8411 18.0289 40.6472C18.4477 40.9497 18.8586 41.2443 19.3472 41.415C21.0454 41.9966 22.8832 41.3219 23.7827 39.7709C25.3413 37.0721 26.8922 34.3733 28.4508 31.6822C30.0792 28.8593 31.6999 26.0364 33.3438 23.229C33.7005 22.6241 34.0882 22.027 34.4372 21.4221C35.6934 19.2429 34.949 16.9784 32.9018 15.9469C32.801 15.8926 32.708 15.8694 32.6227 15.7453Z" fill="#3487FE"/>
<path d="M14.3999 15.6797C17.9436 15.6797 20.7895 18.5258 20.7895 22.0622C20.7895 25.6063 17.9436 28.468 14.4076 28.4757C10.8639 28.4835 7.99478 25.6141 7.99478 22.0622C8.00254 18.5258 10.8561 15.6797 14.3999 15.6797Z" fill="#3487FE"/>
</svg>

<svg xmlns="http://www.w3.org/2000/svg" width="74" height="75" fill="none"><path fill="#121620" d="M73.984 35.454v3.18c-.093.038-.061.131-.07.201a33.208 33.208 0 0 1-.472 4.382c-.977 5.739-3.18 10.958-6.623 15.642-4.319 5.863-9.894 10.113-16.695 12.726-3.264 1.257-6.653 2.001-10.142 2.28-.481.04-.97-.023-1.435.132h-3.18c-.07-.124-.185-.062-.278-.062a34.448 34.448 0 0 1-6.165-.83 36.596 36.596 0 0 1-13.81-6.29 36.72 36.72 0 0 1-9.973-11.02C2.241 50.88.581 45.568.124 39.876c-.031-.412.031-.838-.116-1.242v-3.257c.155-.465.093-.953.132-1.434a35.608 35.608 0 0 1 1.535-7.91C3.745 19.446 7.367 13.863 12.53 9.28a36.215 36.215 0 0 1 10.833-6.662A36.683 36.683 0 0 1 34.166.13c.426-.031.86.039 1.28-.116h3.101c.039.093.132.062.202.07 2.148.07 4.264.364 6.35.837 5.018 1.125 9.608 3.203 13.741 6.25 5.87 4.328 10.112 9.904 12.725 16.705 1.264 3.289 2.008 6.7 2.295 10.214.04.458-.023.923.124 1.365ZM27.582 57.06c-.077.201.024.279.078.38 1.116 1.93 2.249 3.854 3.342 5.793.574 1.008 1.248 1.908 2.171 2.629 3.381 2.645 8.514 1.714 10.724-1.97 1.055-1.753 2.063-3.536 3.087-5.304 2.163-3.746 4.311-7.5 6.475-11.245 2.14-3.7 4.28-7.399 6.42-11.106 1.807-3.133 3.606-6.274 5.428-9.4 1.66-2.845 1.365-6.382-.961-8.863-1.427-1.52-3.218-2.28-5.304-2.296-2.443-.023-4.885-.008-7.328 0-.116 0-.256-.054-.372.07.077.132.21.14.325.17 3.436 1.017 5.289 5.026 3.808 8.283-.52 1.14-1.21 2.187-1.83 3.265-1.908 3.32-3.823 6.63-5.739 9.942-1.558 2.699-3.117 5.39-4.668 8.089-.93 1.62-1.822 3.265-2.776 4.87-.961 1.613-1.9 3.25-2.83 4.886-.605 1.062-1.303 2.032-2.373 2.668-2.132 1.272-4.28 1.295-6.436.07-.45-.24-.814-.605-1.24-.931Zm5.04-41.32c.086.117.179.14.272.186 2.047 1.032 2.792 3.296 1.535 5.475-.349.605-.736 1.203-1.093 1.808-1.644 2.807-3.264 5.63-4.893 8.453-1.559 2.698-3.11 5.397-4.668 8.088-.892 1.551-2.737 2.226-4.436 1.644-.488-.17-.9-.465-1.318-.767-.1.201.031.31.093.418 1.218 2.125 2.427 4.25 3.668 6.36 1.838 3.125 6.343 3.195 8.282.124.667-1.055 1.264-2.156 1.892-3.234l6.397-11.075c1.985-3.435 3.986-6.855 5.956-10.306 1.853-3.25-.489-7.251-4.234-7.251h-7.018c-.124.015-.272-.031-.434.077ZM14.4 15.678a6.387 6.387 0 0 0-6.405 6.383c0 3.552 2.869 6.429 6.413 6.413a6.394 6.394 0 0 0 6.382-6.413 6.37 6.37 0 0 0-6.39-6.383Z"/><path fill="#3487FE" d="M27.582 57.065c.427.326.791.683 1.241.939 2.163 1.217 4.312 1.202 6.436-.07 1.07-.644 1.768-1.605 2.373-2.668.93-1.636 1.869-3.265 2.83-4.886.954-1.605 1.846-3.249 2.776-4.87 1.551-2.699 3.118-5.39 4.669-8.088 1.915-3.312 3.83-6.623 5.738-9.943.62-1.085 1.31-2.132 1.83-3.264 1.48-3.258-.372-7.267-3.808-8.283-.116-.031-.248-.039-.325-.17.124-.125.256-.07.372-.07 2.443 0 4.885-.016 7.328 0 2.086.015 3.877.775 5.304 2.295 2.318 2.482 2.62 6.018.961 8.864-1.822 3.126-3.62 6.266-5.428 9.4-2.14 3.699-4.28 7.398-6.42 11.105-2.164 3.746-4.312 7.5-6.475 11.245-1.024 1.776-2.04 3.552-3.087 5.305-2.21 3.683-7.343 4.614-10.724 1.97-.922-.722-1.597-1.622-2.171-2.63-1.093-1.939-2.226-3.862-3.342-5.793-.054-.1-.155-.186-.078-.388ZM32.623 15.745c.163-.108.31-.062.442-.062h7.017c3.746 0 6.088 4.002 4.234 7.251-1.97 3.444-3.97 6.871-5.955 10.307l-6.397 11.074c-.629 1.078-1.226 2.18-1.892 3.234-1.94 3.071-6.444 3.002-8.282-.124-1.24-2.11-2.45-4.234-3.668-6.359-.062-.109-.194-.225-.093-.419.419.303.83.597 1.318.768 1.698.582 3.536-.093 4.436-1.644 1.558-2.699 3.11-5.398 4.668-8.089 1.628-2.823 3.249-5.646 4.893-8.453.356-.605.744-1.202 1.093-1.807 1.256-2.18.512-4.444-1.535-5.475-.101-.054-.194-.078-.28-.202ZM14.4 15.68a6.37 6.37 0 0 1 6.39 6.382 6.394 6.394 0 0 1-6.382 6.414 6.4 6.4 0 0 1-6.413-6.414A6.387 6.387 0 0 1 14.4 15.68Z"/></svg>
